!!!OTL: Liebesplauderei.
!!!OTL-incipit: VOR MEINES HERZLIEBCHENS FENSTER
!!!ARE: Europa, Mitteleuropa, Deutschland, Niederrhein
!!!SCT: Z1185
!!!TXL: @@DE
!!!YEM: Copyright 1995, estate of Helmut Schaffrath.
**kern	**text
*ICvox	*
*M6/8	*
*k[f#]	*
*G:	*
!LO:TX:a:t=Vom Niederrhein.	!
{8d	Vor
=1	=1
8g	mei-
8g	-nes
8a	Herʒ-
8bL	-lieb-
8gJ	.
8a	-chens
=2	=2
4.b/	Fen-
4a}	-ſter,
({16b/L	da
16ccJ)	.
=3	=3
8dd/L	iſt
8ccJ	.
8b/	ein
8aL	kla-
8gJ	.
8a	-rer
=4	=4
4b/	Sprung,
8r	.
4r}	.
{8b/	hätt'
=5	=5
8ddL	ich
8ccJ	.
8b/	dar-
8aL	-aus
8gJ	.
8a	ein
=6	=6
4g	Trün-
8e	-ke-
4d}	-lein,
{8d	ein
=7	=7
4b/	Trün-
8g	-ke-
4a;}	-lein!
{(16b/L	.
16ccJ)	dann
=8	=8
8.dd	wür-
16cc	-de
8b/	mein
8aL	Herʒ
8gJ	ge-
8a	.
=9	=9
[4g	-ſund.
4g]	.
8r}	.
==	==
!!!AGN: Liebes - Lied, Abschieds - Lied
!!!ONB: ESAC (Essen Associative Code) Database: ZUCCAL
!!!AMT: compound duple
!!!AIN: vox
!!!EED: Helmut Schaffrath
!!!EEV: 1.0
!!!GTL: V. Lieder der Minne.
!!!URL-scan: https://www.digitale-sammlungen.de/de/view/bsb11160573?page=383
!!!ENC: Anna Maria Matuszewska
!!!EEV: 2025/02/05
*-	*-
